image/icon/Dawnstar_undiscovered.svg

<!--version="1.0" encoding="UTF-8"--><svg version="1.1" id="Layer_1" xmlns="http://www.w3.org/2000/svg" width="31" height="42" xml:space="preserve"><g id="PathID_16" transform="matrix(1, 0, 0, 1, 15.15, 21)"><path style="fill: rgb(255, 255, 255); fill-opacity: 1;" d="M10.85-18.8 8.7-15.05 6.5-18.8l-2.2 3.75-2.15-3.75-1.9 3.25L2.1-7.9v.2l-.1.1-.3.5 3.2 3.15.6-.4.15.05 7.7 1.85v-12.4h-.2l-2.3-3.95m2.5.7h1.8V-.75q0 4.2-2.75 9.55-3.85 7.6-11.3 11.85L.75 21h-1.5l-.35-.35Q-8.55 16.4-12.4 8.8q-2.75-5.35-2.75-9.55V-18.1h1.65l1.7-2.9h1.7l1.3 2.35L-7.45-21h1.7l1.35 2.35L-3.1-21h1.7l1.35 2.35L1.3-21H3l1.3 2.35L5.65-21h1.7l1.35 2.35L10-21h1.7l1.65 2.9M5.5-.05l-.6-.4-3.2 3.4.4.6v.15L.35 18.15.1 19.2q6.9-3.95 10.6-11 2.65-5.1 2.65-8.95V-1.9L5.65-.1l-.15.05M-6.6-18.8l-2.2 3.75-2.15-3.75-2.3 3.95h-.1v12.3l7.5-1.75.15-.05.6.4 3.3-3.15-.3-.5-.1-.1 1.85-7.85-1.9-3.25-2.15 3.75-2.2-3.75M-13.35-.75q0 3.85 2.65 8.95 3.65 7 10.55 10.95l-.25-1L-2.15 3.7l-.05-.15.4-.6-3.3-3.4-.6.4-.15-.05-7.5-1.75v1.1m13-4.2-2.9 2.85L-.05 1 3.2-2.25l-3.3-3-.25.3"/><path style="fill: rgb(0, 0, 0); fill-opacity: 1;" d="M13.15-14.85h.2v12.4L5.65-4.3l-.15-.05-.6.4L1.7-7.1l.3-.5.1-.1v-.2L.25-15.55l1.9-3.25 2.15 3.75 2.2-3.75 2.2 3.75 2.15-3.75 2.3 3.95M5.65-.1l7.7-1.8v1.15q0 3.85-2.65 8.95Q7 15.25.1 19.2l.25-1.05L2.1 3.7v-.15l-.4-.6 3.2-3.4.6.4.15-.05M-4.4-15.05l2.15-3.75 1.9 3.25L-2.2-7.7l.1.1.3.5-3.3 3.15-.6-.4-.15.05-7.5 1.75v-12.3h.1l2.3-3.95 2.15 3.75 2.2-3.75 2.2 3.75m-8.95 13.2 7.5 1.75.15.05.6-.4 3.3 3.4-.4.6.05.15L-.4 18.15l.25 1Q-7.05 15.2-10.7 8.2q-2.65-5.1-2.65-8.95v-1.1M-.1-5.25l3.3 3L-.05 1l-3.2-3.1 2.9-2.85.25-.3"/></g></svg>

<?xml version="1.0" encoding="UTF-8"?>
<svg version="1.1" id="Layer_1" xmlns="http://www.w3.org/2000/svg" xmlns:xlink="http://www.w3.org/1999/xlink" width="31px" height="42px" xml:space="preserve">
<g id="PathID_16" transform="matrix(1, 0, 0, 1, 15.15, 21)">
<path style="fill:#FFFFFF;fill-opacity:1" d="M10.85 -18.8L8.7 -15.05L6.5 -18.8L4.3 -15.05L2.15 -18.8L0.25 -15.55L2.1 -7.9L2.1 -7.7L2 -7.6L1.7 -7.1L4.9 -3.95L5.5 -4.35L5.65 -4.3L13.35 -2.45L13.35 -14.85L13.15 -14.85L10.85 -18.8M13.35 -18.1L15.15 -18.1L15.15 -0.75Q15.15 3.45 12.4 8.8Q8.55 16.4 1.1 20.65L0.75 21L-0.75 21L-1.1 20.65Q-8.55 16.4 -12.4 8.8Q-15.15 3.45 -15.15 -0.75L-15.15 -18.1L-13.5 -18.1L-11.8 -21L-10.1 -21L-8.8 -18.65L-7.45 -21L-5.75 -21L-4.4 -18.65L-3.1 -21L-1.4 -21L-0.05 -18.65L1.3 -21L3 -21L4.3 -18.65L5.65 -21L7.35 -21L8.7 -18.65L10 -21L11.7 -21L13.35 -18.1M5.5 -0.05L4.9 -0.45L1.7 2.95L2.1 3.55L2.1 3.7L0.35 18.15L0.1 19.2Q7 15.25 10.7 8.2Q13.35 3.1 13.35 -0.75L13.35 -1.9L5.65 -0.1L5.5 -0.05M-6.6 -18.8L-8.8 -15.05L-10.95 -18.8L-13.25 -14.85L-13.35 -14.85L-13.35 -2.55L-5.85 -4.3L-5.7 -4.35L-5.1 -3.95L-1.8 -7.1L-2.1 -7.6L-2.2 -7.7L-0.35 -15.55L-2.25 -18.8L-4.4 -15.05L-6.6 -18.8M-13.35 -0.75Q-13.35 3.1 -10.7 8.2Q-7.05 15.2 -0.15 19.15L-0.4 18.15L-2.15 3.7L-2.2 3.55L-1.8 2.95L-5.1 -0.45L-5.7 -0.05L-5.85 -0.1L-13.35 -1.85L-13.35 -0.75M-0.35 -4.95L-3.25 -2.1L-0.05 1L3.2 -2.25L-0.1 -5.25L-0.35 -4.95"/>
<path style="fill:#000000;fill-opacity:1" d="M13.15 -14.85L13.35 -14.85L13.35 -2.45L5.65 -4.3L5.5 -4.35L4.9 -3.95L1.7 -7.1L2 -7.6L2.1 -7.7L2.1 -7.9L0.25 -15.55L2.15 -18.8L4.3 -15.05L6.5 -18.8L8.7 -15.05L10.85 -18.8L13.15 -14.85M5.65 -0.1L13.35 -1.9L13.35 -0.75Q13.35 3.1 10.7 8.2Q7 15.25 0.1 19.2L0.35 18.15L2.1 3.7L2.1 3.55L1.7 2.95L4.9 -0.45L5.5 -0.05L5.65 -0.1M-4.4 -15.05L-2.25 -18.8L-0.35 -15.55L-2.2 -7.7L-2.1 -7.6L-1.8 -7.1L-5.1 -3.95L-5.7 -4.35L-5.85 -4.3L-13.35 -2.55L-13.35 -14.85L-13.25 -14.85L-10.95 -18.8L-8.8 -15.05L-6.6 -18.8L-4.4 -15.05M-13.35 -1.85L-5.85 -0.1L-5.7 -0.05L-5.1 -0.45L-1.8 2.95L-2.2 3.55L-2.15 3.7L-0.4 18.15L-0.15 19.15Q-7.05 15.2 -10.7 8.2Q-13.35 3.1 -13.35 -0.75L-13.35 -1.85M-0.1 -5.25L3.2 -2.25L-0.05 1L-3.25 -2.1L-0.35 -4.95L-0.1 -5.25"/>
</g>
</svg>
